;FLAVOR:Marlin
;TIME:6165
;Filament used: 5.49835m
;Layer height: 0.2
;MINX:31.922
;MINY:55.018
;MINZ:0.2
;MAXX:188.838
;MAXY:165.595
;MAXZ:7.8
;TARGET_MACHINE.NAME:Creality Ender-3 S1
;Generated with Cura_SteamEngine 5.6.0
M82 ;absolute extrusion mode
; Ender 3 S1 Start G-code
; M413 S0 ; Disable power loss recovery
G92 E0 ; Reset Extruder

; Prep surfaces before auto home for better accuracy
M140 S60
M104 S200

G28 ; Home all axes
G1 Z10.0 F3000 ; Move Z Axis up little to prevent scratching of Heat Bed
G1 X0 Y0

M190 S60
M109 S200

G1 X0.1 Y20 Z0.3 F5000.0 ; Move to start position
G1 X0.1 Y200.0 Z0.3 F1500.0 E15 ; Draw the first line
G1 X0.4 Y200.0 Z0.3 F5000.0 ; Move to side a little
G1 X0.4 Y20 Z0.3 F1500.0 E30 ; Draw the second line
G92 E0 ; Reset Extruder
G1 Z2.0 F3000 ; Move Z Axis up little to prevent scratching of Heat Bed
G1 X5 Y20 Z0.3 F5000.0 ; Move over to prevent blob squish

G92 E0
G92 E0
G1 F2400 E-0.8
;LAYER_COUNT:39
;LAYER:0
M107
M204 S2000
G0 F7500 X58.919 Y73.565 Z0.2
M204 S500
;TYPE:SKIRT
G1 F2400 E0
G1 F1500 X60.781 Y72.043 E0.07999
G1 X62.323 Y70.823 E0.14539
G1 X63.899 Y69.617 E0.21139
G1 X65.468 Y68.459 E0.27625
G1 X66.807 Y67.508 E0.33087
G1 X68.351 Y66.45 E0.39313
G1 X69.582 Y65.638 E0.44218
G1 X71.456 Y64.46 E0.5158
G1 X72.359 Y63.916 E0.55086
G1 X73.656 Y63.164 E0.60072
G1 X75.144 Y62.352 E0.6571
G1 X76.325 Y61.737 E0.70139
G1 X77.462 Y61.179 E0.74352
G1 X78.435 Y60.72 E0.7793
G1 X78.996 Y60.471 E0.79971
G1 X80.1 Y60.061 E0.83888
G1 X80.93 Y59.803 E0.86779
G1 X85.674 Y58.401 E1.03232
G1 X86.53 Y58.161 E1.06189
G1 X87.472 Y57.925 E1.09419
G1 X92.668 Y56.788 E1.2711
G1 X93.866 Y56.548 E1.31174
G1 X94.541 Y56.438 E1.33449
G1 X99.893 Y55.665 E1.51434
G1 X100.572 Y55.577 E1.53711
G1 X101.56 Y55.477 E1.57014
G1 X106.999 Y55.088 E1.75151
G1 X108.071 Y55.031 E1.78721
G1 X108.728 Y55.018 E1.80907
G1 X114.016 Y55.018 E1.98495
G1 X115.288 Y55.044 E2.02726
G1 X115.812 Y55.069 E2.04471
G1 X121.166 Y55.455 E2.22325
G1 X122.291 Y55.556 E2.26082
G1 X122.989 Y55.64 E2.2842
G1 X128.468 Y56.435 E2.46834
G1 X129.48 Y56.604 E2.50247
G1 X129.997 Y56.704 E2.51998
G1 X135.381 Y57.883 E2.7033
G1 X136.462 Y58.141 E2.74026
G1 X137.076 Y58.311 E2.76145
G1 X142.098 Y59.795 E2.93562
G1 X143.254 Y60.159 E2.97593
G1 X143.831 Y60.362 E2.99628
G1 X148.836 Y62.24 E3.17408
G1 X149.978 Y62.693 E3.21494
G1 X150.613 Y62.971 E3.23799
G1 X155.409 Y65.175 E3.41355
G1 X156.175 Y65.539 E3.44175
G1 X157.019 Y65.974 E3.47333
G1 X161.679 Y68.536 E3.65021
G1 X162.442 Y68.97 E3.6794
G1 X163.279 Y69.479 E3.71198
G1 X167.762 Y72.382 E3.88962
G1 X168.744 Y73.043 E3.92899
G1 X169.26 Y73.418 E3.95021
G1 X173.472 Y76.598 E4.12574
G1 X174.18 Y77.147 E4.15554
G1 X174.895 Y77.755 E4.18676
G1 X175.602 Y78.475 E4.22032
G1 X176.177 Y79.172 E4.25037
G1 X176.763 Y80.029 E4.2849
G1 X177.133 Y80.673 E4.30961
G1 X177.699 Y81.745 E4.34993
G1 X178.948 Y84.03 E4.43654
G1 X180.217 Y86.204 E4.52026
G1 X181.537 Y88.326 E4.60338
G1 X182.942 Y90.449 E4.68806
G1 X184.39 Y92.507 E4.77175
G1 X185.945 Y94.59 E4.85821
G1 X186.568 Y95.398 E4.89214
G1 X187.126 Y96.195 E4.9245
G1 X187.613 Y97.039 E4.95691
G1 X187.995 Y97.858 E4.98697
G1 X188.351 Y98.839 E5.02168
G1 X188.583 Y99.711 E5.05169
G1 X188.76 Y100.741 E5.08645
G1 X188.835 Y101.641 E5.11649
G1 X188.838 Y102.482 E5.14446
G1 X188.812 Y103.094 E5.16483
G1 X187.376 Y126.297 E5.93805
G1 X187.303 Y127.218 E5.96877
G1 X187.179 Y128.183 E6.00113
G1 X186.971 Y129.134 E6.03351
G1 X186.68 Y130.064 E6.06592
G1 X186.307 Y130.964 E6.09833
G1 X185.874 Y131.796 E6.12952
G1 X185.331 Y132.647 E6.1631
G1 X184.768 Y133.379 E6.19381
G1 X183.669 Y134.69 E6.25071
G1 X182.067 Y136.667 E6.33534
G1 X180.523 Y138.692 E6.42004
G1 X179.057 Y140.725 E6.5034
G1 X177.635 Y142.823 E6.5877
G1 X176.28 Y144.951 E6.67161
G1 X175.303 Y146.567 E6.73442
G1 X174.761 Y147.376 E6.76681
G1 X174.15 Y148.133 E6.79916
G1 X173.498 Y148.81 E6.83042
G1 X172.759 Y149.453 E6.863
G1 X171.686 Y150.209 E6.90666
G1 X171.178 Y150.518 E6.92644
G1 X166.359 Y153.292 E7.11138
G1 X165.609 Y153.711 E7.13995
G1 X164.75 Y154.157 E7.17214
G1 X159.831 Y156.539 E7.35392
G1 X158.68 Y157.066 E7.39603
G1 X158.199 Y157.272 E7.41343
G1 X152.926 Y159.371 E7.60219
G1 X152.256 Y159.626 E7.62604
G1 X151.662 Y159.836 E7.64699
G1 X146.036 Y161.622 E7.84332
G1 X145.014 Y161.926 E7.87878
G1 X144.391 Y162.089 E7.9002
G1 X138.946 Y163.394 E8.08643
G1 X137.942 Y163.614 E8.12062
G1 X137.286 Y163.738 E8.14282
G1 X131.702 Y164.657 E8.33104
G1 X130.705 Y164.801 E8.36455
G1 X129.981 Y164.88 E8.38877
G1 X124.498 Y165.383 E8.5719
G1 X123.449 Y165.46 E8.60689
G1 X122.829 Y165.485 E8.62752
G1 X117.224 Y165.595 E8.81398
G1 X116.104 Y165.595 E8.85123
G1 X115.467 Y165.573 E8.87243
G1 X110.055 Y165.291 E9.05268
G1 X109.195 Y165.234 E9.08135
G1 X108.231 Y165.143 E9.11355
G1 X102.795 Y164.466 E9.29575
G1 X101.572 Y164.288 E9.33686
G1 X101.049 Y164.197 E9.35451
G1 X95.507 Y163.098 E9.54243
G1 X94.793 Y162.947 E9.5667
G1 X94.064 Y162.773 E9.59163
G1 X88.541 Y161.261 E9.78209
G1 X87.479 Y160.951 E9.81888
G1 X86.861 Y160.747 E9.84053
G1 X81.446 Y158.834 E10.03154
G1 X80.475 Y158.466 E10.06608
G1 X79.991 Y158.269 E10.08346
G1 X74.781 Y155.994 E10.27254
G1 X74.122 Y155.693 E10.29664
G1 X73.271 Y155.259 E10.32841
G1 X72.854 Y155.01 E10.34457
G1 X71.593 Y154.217 E10.39411
G1 X69.779 Y153.005 E10.46667
G1 X68.507 Y152.094 E10.51871
G1 X67.256 Y151.162 E10.5706
G1 X65.979 Y150.156 E10.62467
G1 X64.386 Y148.852 E10.69314
G1 X63.298 Y147.922 E10.74074
G1 X61.743 Y146.544 E10.80985
G1 X60.517 Y145.417 E10.86524
G1 X59.292 Y144.252 E10.92146
G1 X57.703 Y142.687 E10.99564
G1 X56.6 Y141.565 E11.04797
G1 X54.901 Y139.788 E11.12975
G1 X53.698 Y138.487 E11.18868
G1 X51.859 Y136.444 E11.28011
G1 X50.911 Y135.361 E11.32798
G1 X48.683 Y132.748 E11.44219
G1 X47.801 Y131.685 E11.48813
G1 X45.456 Y128.79 E11.61204
G1 X44.648 Y127.769 E11.65535
G1 X42.076 Y124.438 E11.79532
G1 X41.402 Y123.548 E11.83245
G1 X38.584 Y119.737 E11.9901
G1 X37.939 Y118.847 E12.02666
G1 X35.575 Y115.521 E12.16237
G1 X35.142 Y114.894 E12.18772
G1 X34.628 Y114.07 E12.22002
G1 X34.244 Y113.323 E12.24796
G1 X33.904 Y112.589 E12.27486
G1 X33.095 Y110.781 E12.34074
G1 X32.795 Y110.083 E12.36601
G1 X32.453 Y109.171 E12.3984
G1 X32.193 Y108.233 E12.43078
G1 X32.017 Y107.274 E12.46321
G1 X31.927 Y106.305 E12.49558
G1 X31.922 Y105.332 E12.52794
G1 X31.995 Y104.432 E12.55797
G1 X32.171 Y103.401 E12.59276
G1 X32.424 Y102.459 E12.6252
G1 X32.757 Y101.547 E12.65749
G1 X33.137 Y100.728 E12.68752
G1 X33.415 Y100.222 E12.70672
G1 X33.946 Y99.314 E12.74171
G1 X34.859 Y97.812 E12.80017
G1 X35.253 Y97.184 E12.82483
G1 X35.805 Y96.387 E12.85707
G1 X36.335 Y95.741 E12.88487
G1 X36.913 Y95.093 E12.91375
G1 X39.657 Y92.103 E13.04873
G1 X40.401 Y91.307 E13.08496
G1 X43.642 Y87.901 E13.24134
G1 X44.532 Y86.986 E13.28379
G1 X47.455 Y84.046 E13.42168
G1 X48.304 Y83.211 E13.46129
G1 X51.03 Y80.589 E13.58709
G1 X52.111 Y79.576 E13.63636
G1 X54.48 Y77.408 E13.74317
G1 X55.542 Y76.464 E13.79043
G1 X57.772 Y74.53 E13.88861
G1 X58.919 Y73.565 E13.93847
M204 S2000
G0 F7500 X59.172 Y73.875
M204 S500
G1 F1500 X61.029 Y72.357 E14.01824
G1 X62.566 Y71.141 E14.08342
G1 X64.136 Y69.939 E14.14919
G1 X65.7 Y68.785 E14.21384
G1 X67.033 Y67.838 E14.26822
G1 X68.571 Y66.784 E14.33023
G1 X69.795 Y65.977 E14.379
G1 X71.662 Y64.803 E14.45235
G1 X72.56 Y64.262 E14.48722
G1 X73.848 Y63.515 E14.53674
G1 X75.329 Y62.707 E14.59285
G1 X76.501 Y62.096 E14.63681
G1 X77.633 Y61.541 E14.67875
G1 X78.597 Y61.086 E14.7142
G1 X79.158 Y60.837 E14.73462
G1 X80.219 Y60.443 E14.77226
G1 X81.043 Y60.187 E14.80096
G1 X85.782 Y58.786 E14.96532
G1 X86.627 Y58.549 E14.99451
G1 X87.558 Y58.316 E15.02643
G1 X92.747 Y57.18 E15.20311
G1 X93.931 Y56.943 E15.24327
G1 X94.598 Y56.834 E15.26575
G1 X99.945 Y56.062 E15.44543
G1 X100.612 Y55.975 E15.4678
G1 X101.589 Y55.876 E15.50046
G1 X107.02 Y55.487 E15.68156
G1 X108.079 Y55.431 E15.71684
G1 X108.736 Y55.418 E15.73869
G1 X114.008 Y55.418 E15.91404
G1 X115.269 Y55.444 E15.95599
G1 X115.783 Y55.468 E15.9731
G1 X121.13 Y55.853 E16.15141
G1 X122.243 Y55.953 E16.18857
G1 X122.932 Y56.036 E16.21166
G1 X128.402 Y56.829 E16.39549
G1 X129.404 Y56.997 E16.42928
G1 X129.911 Y57.095 E16.44646
G1 X135.288 Y58.272 E16.62953
G1 X136.355 Y58.527 E16.66602
G1 X136.963 Y58.695 E16.687
G1 X141.978 Y60.177 E16.86093
G1 X143.121 Y60.536 E16.90078
G1 X143.69 Y60.736 E16.92084
G1 X148.689 Y62.612 E17.09843
G1 X149.818 Y63.059 E17.13881
G1 X150.446 Y63.334 E17.16162
G1 X155.237 Y65.536 E17.33699
G1 X155.992 Y65.895 E17.3648
G1 X156.826 Y66.324 E17.39599
G1 X161.481 Y68.884 E17.57268
G1 X162.234 Y69.312 E17.60149
G1 X163.062 Y69.815 E17.63371
G1 X167.539 Y72.714 E17.81111
G1 X168.509 Y73.366 E17.84998
G1 X169.019 Y73.737 E17.87096
G1 X173.227 Y76.914 E18.04633
G1 X173.921 Y77.452 E18.07554
G1 X174.61 Y78.036 E18.10558
G1 X175.293 Y78.73 E18.13796
G1 X175.868 Y79.427 E18.16801
G1 X176.416 Y80.228 E18.20029
G1 X176.779 Y80.86 E18.22454
G1 X177.348 Y81.937 E18.26505
G1 X178.597 Y84.222 E18.35166
G1 X179.877 Y86.415 E18.43612
G1 X181.203 Y88.547 E18.51962
G1 X182.608 Y90.67 E18.6043
G1 X184.069 Y92.746 E18.68873
G1 X185.628 Y94.834 E18.7754
G1 X186.241 Y95.628 E18.80876
G1 X186.78 Y96.395 E18.83994
G1 X187.25 Y97.208 E18.87117
G1 X187.632 Y98.027 E18.90123
G1 X187.964 Y98.942 E18.93361
G1 X188.196 Y99.814 E18.96362
G1 X188.361 Y100.774 E18.99602
G1 X188.436 Y101.674 E19.02605
G1 X188.438 Y102.465 E19.05236
G1 X188.413 Y103.069 E19.07247
G1 X186.977 Y126.266 E19.84548
G1 X186.906 Y127.168 E19.87558
G1 X186.788 Y128.098 E19.90676
G1 X186.589 Y129.015 E19.93796
G1 X186.31 Y129.911 E19.96918
G1 X185.952 Y130.779 E20.00041
G1 X185.519 Y131.611 E20.0316
G1 X185.014 Y132.403 E20.06284
G1 X184.461 Y133.122 E20.09301
G1 X183.362 Y134.433 E20.14991
G1 X181.756 Y136.415 E20.23476
G1 X180.205 Y138.449 E20.31983
G1 X178.733 Y140.491 E20.40356
G1 X177.304 Y142.599 E20.48826
G1 X175.943 Y144.736 E20.57253
G1 X174.971 Y146.345 E20.63505
G1 X174.449 Y147.125 E20.66627
G1 X173.861 Y147.856 E20.69747
G1 X173.235 Y148.508 E20.72753
G1 X172.496 Y149.151 E20.76011
G1 X171.478 Y149.867 E20.80151
G1 X170.978 Y150.171 E20.82097
G1 X166.164 Y152.943 E21.00573
G1 X165.425 Y153.356 E21.03389
G1 X164.576 Y153.797 E21.06571
G1 X159.664 Y156.175 E21.24722
G1 X158.523 Y156.698 E21.28897
G1 X158.051 Y156.9 E21.30604
G1 X152.784 Y158.997 E21.4946
G1 X152.122 Y159.249 E21.51816
G1 X151.541 Y159.455 E21.53866
G1 X145.922 Y161.239 E21.73474
G1 X144.913 Y161.539 E21.76976
G1 X144.298 Y161.7 E21.7909
G1 X138.86 Y163.003 E21.97689
G1 X137.868 Y163.221 E22.01067
G1 X137.221 Y163.343 E22.03257
G1 X131.645 Y164.261 E22.22052
G1 X130.661 Y164.403 E22.25359
G1 X129.944 Y164.482 E22.27758
G1 X124.469 Y164.984 E22.46044
G1 X123.433 Y165.06 E22.49499
G1 X122.821 Y165.085 E22.51537
G1 X117.216 Y165.195 E22.70183
G1 X116.117 Y165.195 E22.73838
G1 X115.488 Y165.174 E22.75931
G1 X110.081 Y164.892 E22.93939
G1 X109.233 Y164.836 E22.96766
G1 X108.28 Y164.746 E22.9995
G1 X102.852 Y164.07 E23.18143
G1 X101.64 Y163.894 E23.22216
G1 X101.127 Y163.805 E23.23948
G1 X95.59 Y162.707 E23.42723
G1 X94.886 Y162.558 E23.45116
G1 X94.17 Y162.387 E23.47564
G1 X88.653 Y160.877 E23.66589
G1 X87.604 Y160.571 E23.70223
G1 X86.994 Y160.37 E23.72359
G1 X81.588 Y158.46 E23.91429
G1 X80.626 Y158.095 E23.94851
G1 X80.151 Y157.902 E23.96557
G1 X74.947 Y155.63 E24.15443
G1 X74.304 Y155.337 E24.17793
G1 X73.476 Y154.915 E24.20884
G1 X73.067 Y154.671 E24.22468
G1 X71.815 Y153.884 E24.27387
G1 X70.012 Y152.68 E24.34598
G1 X68.746 Y151.773 E24.39777
G1 X67.504 Y150.848 E24.44928
G1 X66.232 Y149.846 E24.50314
G1 X64.646 Y148.548 E24.5713
G1 X63.563 Y147.623 E24.61867
G1 X62.014 Y146.25 E24.68752
G1 X60.793 Y145.127 E24.74269
G1 X59.573 Y143.967 E24.79869
G1 X57.988 Y142.406 E24.87268
G1 X56.889 Y141.289 E24.9248
G1 X55.195 Y139.516 E25.00636
G1 X53.995 Y138.219 E25.06513
G1 X52.16 Y136.18 E25.15636
G1 X51.215 Y135.101 E25.20407
G1 X48.991 Y132.493 E25.31807
G1 X48.112 Y131.433 E25.36387
G1 X45.77 Y128.542 E25.48762
G1 X44.965 Y127.524 E25.53078
G1 X42.395 Y124.197 E25.67061
G1 X41.724 Y123.31 E25.7076
G1 X38.908 Y119.502 E25.86512
G1 X38.265 Y118.615 E25.90156
G1 X35.904 Y115.294 E26.03709
G1 X35.481 Y114.682 E26.06183
G1 X34.984 Y113.887 E26.09302
G1 X34.607 Y113.155 E26.1204
G1 X34.269 Y112.426 E26.14713
G1 X33.462 Y110.623 E26.21283
G1 X33.169 Y109.942 E26.23749
G1 X32.838 Y109.063 E26.26873
G1 X32.586 Y108.16 E26.29991
G1 X32.415 Y107.236 E26.33116
G1 X32.327 Y106.302 E26.36236
G1 X32.321 Y105.364 E26.39356
G1 X32.394 Y104.464 E26.42359
G1 X32.558 Y103.504 E26.45599
G1 X32.8 Y102.596 E26.48724
G1 X33.12 Y101.715 E26.51842
G1 X33.5 Y100.896 E26.54845
G1 X33.76 Y100.424 E26.56637
G1 X34.288 Y99.522 E26.60113
G1 X35.198 Y98.024 E26.65943
G1 X35.582 Y97.411 E26.68349
G1 X36.114 Y96.641 E26.71461
G1 X36.634 Y96.007 E26.74189
G1 X37.208 Y95.363 E26.77058
G1 X39.949 Y92.376 E26.90542
G1 X40.691 Y91.583 E26.94154
G1 X43.929 Y88.18 E27.09777
G1 X44.816 Y87.268 E27.14009
G1 X47.735 Y84.331 E27.27781
G1 X48.581 Y83.499 E27.31728
G1 X51.303 Y80.881 E27.44289
G1 X52.381 Y79.871 E27.49202
G1 X54.746 Y77.707 E27.59864
G1 X55.804 Y76.766 E27.64574
G1 X58.03 Y74.836 E27.74373
G1 X59.172 Y73.875 E27.79337
M204 S2000
G0 F7500 X59.425 Y74.185
M204 S500
G1 F1500 X58.288 Y75.142 E27.8428
G1 X56.066 Y77.068 E27.9406
G1 X55.012 Y78.006 E27.98753
G1 X52.651 Y80.166 E28.09396
G1 X51.577 Y81.173 E28.14293
G1 X48.858 Y83.787 E28.26838
G1 X48.015 Y84.616 E28.3077
G1 X45.1 Y87.55 E28.44526
G1 X44.216 Y88.459 E28.48743
G1 X40.981 Y91.859 E28.64353
G1 X40.241 Y92.649 E28.67953
G1 X37.503 Y95.633 E28.81423
G1 X36.933 Y96.273 E28.84273
G1 X36.423 Y96.895 E28.86948
G1 X35.911 Y97.638 E28.8995
G1 X35.537 Y98.236 E28.92295
G1 X34.63 Y99.73 E28.98109
G1 X34.105 Y100.626 E29.01563
G1 X33.863 Y101.064 E29.03227
G1 X33.483 Y101.883 E29.0623
G1 X33.176 Y102.732 E29.09233
G1 X32.945 Y103.606 E29.12239
G1 X32.793 Y104.496 E29.15242
G1 X32.72 Y105.396 E29.18246
G1 X32.727 Y106.299 E29.21249
G1 X32.813 Y107.198 E29.24253
G1 X32.979 Y108.086 E29.27257
G1 X33.223 Y108.955 E29.3026
G1 X33.543 Y109.8 E29.33265
G1 X33.829 Y110.465 E29.35672
G1 X34.634 Y112.263 E29.42225
G1 X34.97 Y112.986 E29.44876
G1 X35.34 Y113.704 E29.47563
G1 X35.82 Y114.469 E29.50567
G1 X36.233 Y115.067 E29.52984
G1 X38.591 Y118.383 E29.66517
G1 X39.232 Y119.267 E29.70149
G1 X42.046 Y123.072 E29.85889
G1 X42.714 Y123.956 E29.89575
G1 X45.282 Y127.279 E30.03543
G1 X46.084 Y128.294 E30.07845
G1 X48.423 Y131.181 E30.20203
G1 X49.299 Y132.238 E30.24769
G1 X51.519 Y134.841 E30.36148
G1 X52.461 Y135.916 E30.40902
G1 X54.292 Y137.951 E30.50007
G1 X55.489 Y139.244 E30.55867
G1 X57.178 Y141.013 E30.64002
G1 X58.273 Y142.125 E30.69193
G1 X59.854 Y143.682 E30.76573
G1 X61.069 Y144.837 E30.82149
G1 X62.285 Y145.956 E30.87645
G1 X63.828 Y147.324 E30.94504
G1 X64.906 Y148.244 E30.99217
G1 X66.485 Y149.537 E31.06005
G1 X67.751 Y150.534 E31.11365
G1 X68.985 Y151.452 E31.1648
G1 X70.245 Y152.355 E31.21636
G1 X72.037 Y153.551 E31.28802
G1 X73.28 Y154.332 E31.33685
G1 X73.681 Y154.571 E31.35237
G1 X74.486 Y154.981 E31.38242
G1 X75.113 Y155.266 E31.40533
G1 X80.311 Y157.535 E31.59397
G1 X80.777 Y157.725 E31.6107
G1 X81.73 Y158.086 E31.6446
G1 X87.127 Y159.993 E31.83498
G1 X87.729 Y160.191 E31.85606
G1 X88.765 Y160.493 E31.89195
G1 X94.276 Y162.001 E32.08199
G1 X94.979 Y162.169 E32.10603
G1 X95.673 Y162.316 E32.12962
G1 X101.205 Y163.413 E32.3172
G1 X101.708 Y163.5 E32.33418
G1 X102.909 Y163.674 E32.37454
G1 X108.329 Y164.349 E32.5562
G1 X109.271 Y164.438 E32.58767
G1 X110.107 Y164.493 E32.61554
G1 X115.509 Y164.775 E32.79545
G1 X116.13 Y164.795 E32.81612
G1 X117.208 Y164.795 E32.85197
G1 X122.813 Y164.685 E33.03843
G1 X123.416 Y164.66 E33.05851
G1 X124.44 Y164.585 E33.09265
G1 X129.907 Y164.084 E33.27525
G1 X130.617 Y164.005 E33.29901
G1 X131.588 Y163.865 E33.33164
G1 X137.156 Y162.948 E33.51933
G1 X137.794 Y162.828 E33.54092
G1 X138.774 Y162.612 E33.5743
G1 X144.205 Y161.311 E33.76004
G1 X144.812 Y161.152 E33.78091
G1 X145.808 Y160.856 E33.81547
